CodeHelper/wwwroot/favicon.svg

<svg xmlns="http://www.w3.org/2000/svg" width="527" height="474" style="shape-rendering:geometricPrecision;text-rendering:geometricPrecision;image-rendering:optimizeQuality;fill-rule:evenodd;clip-rule:evenodd"><path d="M144.5 3.5c84.014-.45776 168.014.04224 252 1.5 46.772 6.9497 82.939 30.1164 108.5 69.5 8.887 15.8782 14.22 32.878 16 51 1.358 74.994 1.358 149.994 0 225-6.652 45.291-29.819 79.124-69.5 101.5-20.586 10.983-42.586 17.316-66 19-80.667.667-161.333.667-242 0-48.1211-2.433-86.9544-22.267-116.5-59.5-12.7682-17.631-20.43489-37.298-23-59-.66667-77.333-.66667-154.667 0-232C14.8018 66.3614 46.3018 30.1947 98.5 12c15.126-4.68543 30.46-7.51876 46-8.5Z" style="opacity:.983"/><path fill="#ac3c76" d="M343.5 318.5c-12.466-6.15-24.799-12.483-37-19-1.533-1.745-3.533-2.745-6-3-12.955-6.977-25.955-13.643-39-20 27.522-13.285 54.856-26.952 82-41-27.228-14.281-54.561-27.947-82-41-26.354-14.177-53.021-27.844-80-41 .832-27.497 1.332-55.1636 1.5-83 80.285 40.788 160.451 81.788 240.5 123 1.333 28 1.333 56 0 84-27.103 13.216-53.77 26.883-80 41Z" style="opacity:1"/><path fill="#f9ac16" d="M181.5 153.5c26.979 13.156 53.646 26.823 80 41-26.557 13.224-52.891 26.891-79 41 26.158 13.913 52.492 27.58 79 41 13.045 6.357 26.045 13.023 39 20 1.533 1.745 3.533 2.745 6 3 12.201 6.517 24.534 12.85 37 19v1c.331 27.172-.002 54.172-1 81-80.214-40.107-160.214-80.774-240-122-1.167-28.327-1.333-56.661-.5-85 26.145-13.989 52.645-27.322 79.5-40Z" style="opacity:1"/><path fill="#030100" d="M261.5 194.5c27.439 13.053 54.772 26.719 82 41-27.144 14.048-54.478 27.715-82 41-26.508-13.42-52.842-27.087-79-41 26.109-14.109 52.443-27.776 79-41Z" style="opacity:1"/><path fill="#a55f34" d="M300.5 296.5c2.467.255 4.467 1.255 6 3-2.467-.255-4.467-1.255-6-3Z" style="opacity:1"/><path fill="#453006" d="M343.5 319.5c1.329 27.17 1.329 54.503 0 82-.607-.124-.94-.457-1-1 .998-26.828 1.331-53.828 1-81Z" style="opacity:1"/></svg>

<?xml version="1.0" encoding="UTF-8"?>
<!DOCTYPE svg PUBLIC "-//W3C//DTD SVG 1.1//EN" "http://www.w3.org/Graphics/SVG/1.1/DTD/svg11.dtd">
<svg xmlns="http://www.w3.org/2000/svg" version="1.1" width="527px" height="474px" style="shape-rendering:geometricPrecision; text-rendering:geometricPrecision; image-rendering:optimizeQuality; fill-rule:evenodd; clip-rule:evenodd" xmlns:xlink="http://www.w3.org/1999/xlink">
<g><path style="opacity:0.983" fill="#000000" d="M 144.5,3.5 C 228.514,3.04224 312.514,3.54224 396.5,5C 443.272,11.9497 479.439,35.1164 505,74.5C 513.887,90.3782 519.22,107.378 521,125.5C 522.358,200.494 522.358,275.494 521,350.5C 514.348,395.791 491.181,429.624 451.5,452C 430.914,462.983 408.914,469.316 385.5,471C 304.833,471.667 224.167,471.667 143.5,471C 95.3789,468.567 56.5456,448.733 27,411.5C 14.2318,393.869 6.56511,374.202 4,352.5C 3.33333,275.167 3.33333,197.833 4,120.5C 14.8018,66.3614 46.3018,30.1947 98.5,12C 113.626,7.31457 128.96,4.48124 144.5,3.5 Z"/></g>
<g><path style="opacity:1" fill="#ac3c76" d="M 343.5,318.5 C 331.034,312.35 318.701,306.017 306.5,299.5C 304.967,297.755 302.967,296.755 300.5,296.5C 287.545,289.523 274.545,282.857 261.5,276.5C 289.022,263.215 316.356,249.548 343.5,235.5C 316.272,221.219 288.939,207.553 261.5,194.5C 235.146,180.323 208.479,166.656 181.5,153.5C 182.332,126.003 182.832,98.3364 183,70.5C 263.285,111.288 343.451,152.288 423.5,193.5C 424.833,221.5 424.833,249.5 423.5,277.5C 396.397,290.716 369.73,304.383 343.5,318.5 Z"/></g>
<g><path style="opacity:1" fill="#f9ac16" d="M 181.5,153.5 C 208.479,166.656 235.146,180.323 261.5,194.5C 234.943,207.724 208.609,221.391 182.5,235.5C 208.658,249.413 234.992,263.08 261.5,276.5C 274.545,282.857 287.545,289.523 300.5,296.5C 302.033,298.245 304.033,299.245 306.5,299.5C 318.701,306.017 331.034,312.35 343.5,318.5C 343.5,318.833 343.5,319.167 343.5,319.5C 343.831,346.672 343.498,373.672 342.5,400.5C 262.286,360.393 182.286,319.726 102.5,278.5C 101.333,250.173 101.167,221.839 102,193.5C 128.145,179.511 154.645,166.178 181.5,153.5 Z"/></g>
<g><path style="opacity:1" fill="#030100" d="M 261.5,194.5 C 288.939,207.553 316.272,221.219 343.5,235.5C 316.356,249.548 289.022,263.215 261.5,276.5C 234.992,263.08 208.658,249.413 182.5,235.5C 208.609,221.391 234.943,207.724 261.5,194.5 Z"/></g>
<g><path style="opacity:1" fill="#a55f34" d="M 300.5,296.5 C 302.967,296.755 304.967,297.755 306.5,299.5C 304.033,299.245 302.033,298.245 300.5,296.5 Z"/></g>
<g><path style="opacity:1" fill="#453006" d="M 343.5,319.5 C 344.829,346.67 344.829,374.003 343.5,401.5C 342.893,401.376 342.56,401.043 342.5,400.5C 343.498,373.672 343.831,346.672 343.5,319.5 Z"/></g>
</svg>
